X: 6
T: Keys to the Cellar
R: three-two
M: 3/2
L: 1/8
K: Gdor
|: B2G2G2D2 G4 | B2G2G2B2 ABcA |\
B2G2G2D2 G4 | A3GF2c2 ABcA :|
|: G2g2 g2f2 g4 | G2g2 g2ga b2g2 |\
G2g2 g2fe f3d | c3AF2 c2dcBA :|
